X:1
T:Attend, O Earth, whilst I declare
T:Joseph Stephenson
T:p33, Church Harmony Sacred to Devotion, 4th ed. London: [c1763-1771]
T:This edition by Edmund Gooch released into the public domain, December 2010. As such, it may be freely copied and performed.
T:Attend, O Earth, whilst I declare
T:Ps. 2d. Ver. 7th. A 4 Voce.
T:Copyright © 
T:Copyright © 
C:Joseph Stephenson
Z:p33, Church Harmony
Z:Sacred to Devotion, 4th ed.
Z:London: [c1763-1771]
Z:Copyright ©
%%score [ 1 2 3 4 ]
L:1/8
M:2/2
K:A
V:1 treble nm="SOPRANO" snm="S."
V:2 treble nm="ALTO" snm="A."
V:3 treble-8 transpose=-12 nm="TENOR" snm="T."
V:4 bass nm="BASS" snm="B."
V:1
 A8 | c4 (B2 AG) | A4 c4 | (B2 A2) (ed c2) | B8 | B8 | A4 (B2 A2) | TG6 G2 | A8 | z4 (c3 B) | %10
w: Learn|then, ye _ _|prin- ces,|and _ give _ _|ear,|Ye|jud- ges _|of the|earth;|Wor- *|
w: At-|tend, O _ _|Earth, whilst|I _ de- * *|clare|God’s|un- con- *|troll’d de-|cree:|‘Thou _|
w: ‘Ask|and re- * *|ceive thy|full _ de- * *|mands;|Thine|shall the _|hea- then|be;|The _|
 (A2 B2) (c2 ^d2) | e4 (e3 d) | (c2 B2) A4 | B8 | B8 | (c2 B2) (c2 de) | f4 (e3 d) | c8 |] %18
w: ship _ the _|Lord with _|ho- * ly|fear;|Re-|joice _ with _ _|aw- ful _|mirth.|
w: art _ my _|Son, this _|day _ my|heir|Have|I _ be- * *|got- ten _|thee.’|
w: ut- * most _|li- mits _|of _ the|lands|Shall|be _ pos- * *|sessed by _|thee.’|
V:2
 E8 | A4 G4 | F4 E4 | F4 E4 | E8 | E8 | E4 F4 | E6 E2 | E8 | z4 (E3 D) | (C2 D2) (E3 F) | G4 A4 | %12
w: Learn|then, ye|prin- ces,|and give|ear,|Ye|jud- ges|of the|earth;|Wor- *|ship _ the _|Lord with|
w: At-|tend, O|Earth, whilst|I de-|clare|God’s|un- con-|troll’d de-|cree:|‘Thou _|art _ my _|Son, this|
w: ‘Ask|and re-|ceive thy|full de-|mands;|Thine|shall the|hea- then|be;|The _|ut- * most _|li- mits|
 E4 A4 | G8 | G8 | E4 E4 | A4 TG4 | A8 |] %18
w: ho- ly|fear;|Re-|joice with|aw- ful|mirth.|
w: day my|heir|Have|I be-|got- ten|thee.’|
w: of the|lands|Shall|be pos-|sessed by|thee.’|
V:3
 A8 | F4 B4 | A4 e4 | (d2 c2) (B2 A2) | G8 | e8 | c4 (d2 c2) | TB6 B2 | A8 | z4 (c3 d) | %10
w: Learn|then, ye|prin- ces,|and _ give _|ear,|Ye|jud- ges _|of the|earth;|Wor- *|
w: At-|tend, O|Earth, whilst|I _ de- *|clare|God’s|un- con- *|troll’d de-|cree:|‘Thou _|
w: ‘Ask|and re-|ceive thy|full _ de- *|mands;|Thine|shall the _|hea- then|be;|The _|
 (e2 d2) c4 | B4 (c3 B) | (A2 B2) (c2 ^d2) | e8 | e8 | (c2 d2) (e2 A2) | (d2 c2) TB4 | A8 |] %18
w: ship _ the|Lord with _|ho- * ly _|fear;|Re-|joice _ with _|aw- * ful|mirth.|
w: art _ my|Son, this _|day _ my _|heir|Have|I _ be- *|got- * ten|thee.’|
w: ut- * most|li- mits _|of _ the _|lands|Shall|be _ pos- *|sessed _ by|thee.’|
V:4
 A,8 | A,4 E,4 | F,4 C,4 | D,4 A,,4 | E,8 | E,8 | A,4 D,4 | E,6 E,2 | A,,8 | z4 (A,3 B,) | %10
w: Learn|then, ye|prin- ces,|and give|ear,|Ye|jud- ges|of the|earth;|Wor- *|
w: At-|tend, O|Earth, whilst|I de-|clare|God’s|un- con-|troll’d de-|cree:|‘Thou _|
w: ‘Ask|and re-|ceive thy|full de-|mands;|Thine|shall the|hea- then|be;|The _|
 (C2 B,2) A,4 | E,4 A,,4 | (A,2 G,2) F,4 | %13
w: ship _ the|Lord with|ho- * ly|
w: art _ my|Son, this|day _ my|
w: ut- * most|li- mits|of _ the|
"^Emendations: The order of staves in this edition is the same as in the source, and while no indication of which partis the treble and which is the tenor in this piece, the first piece in the book, 'An Anthem out of the 2d. Chap: of Lukefor ye Nativity' (beginning 'Behold, I bring you glad tidings') starts with a 'Treble solo', which is printed on the first staveof the four-stave system, all other staves having rests printed.The counter part is notated in the alto clef in the source.The only indications of the text for this tune in the source are the tune title 'Ps 2d. Ver. 7th' and the opening words'Attend O Earth'." E,8 | %14
w: fear;|
w: heir|
w: lands|
 E,8 | (A,2 G,2) A,4 | D,4 E,4 | A,,8 |] %18
w: Re-|joice _ with|aw- ful|mirth.|
w: Have|I _ be-|got- ten|thee.’|
w: Shall|be _ pos-|sessed by|thee.’|

